icons/i18n.svg

<svg xmlns="http://www.w3.org/2000/svg" viewBox="0 0 32 32">
  <path d="M24,14H22L16,28h3l.85742-2h6.28516L27,28h3Zm-2.85638,9L23,18.67,24.85638,23Z" style="fill: #7986cb;fill-rule: evenodd"/>
  <path d="M12,6V4H10V6H2V8H13.95856a13.39245,13.39245,0,0,1-2.876,7.06958C10.29614,14.10767,9.51178,13.08051,8.78583,12H6.40759A41.87672,41.87672,0,0,0,9.812,16.68451a63.79566,63.79566,0,0,1-5.48926,5.57916l1.3545,1.47266A67.69285,67.69285,0,0,0,11.13086,18.213c1.22443,1.36469,2.38367,2.52375,3.279,3.34162L15.83,20.13452c-.86365-.79321-2.09656-2.014-3.41462-3.49719A15.3433,15.3433,0,0,0,15.96893,8H20V6Z" style="fill: #7986cb"/>
</svg>

<svg xmlns="http://www.w3.org/2000/svg" viewBox="0 0 32 32"><path fill="#7986cb" fill-rule="evenodd" d="M24 14h-2l-6 14h3l.857-2h6.286L27 28h3Zm-2.856 9L23 18.67 24.856 23Z"/><path fill="#7986cb" d="M12 6V4h-2v2H2v2h11.959a13.392 13.392 0 0 1-2.876 7.07A41.024 41.024 0 0 1 8.786 12H6.408a41.877 41.877 0 0 0 3.404 4.685 63.796 63.796 0 0 1-5.49 5.579l1.355 1.472a67.693 67.693 0 0 0 5.454-5.523 48.877 48.877 0 0 0 3.279 3.342l1.42-1.42a50 50 0 0 1-3.415-3.498A15.343 15.343 0 0 0 15.97 8H20V6Z"/></svg>
